X:1
T:Title
%%score { ( 1 4 ) | ( 2 3 ) }
L:1/8
M:3/4
K:Bb
V:1 treble nm="Grand Piano"
V:4 treble 
V:2 bass 
V:3 bass 
V:1
 z2 z2[Q:1/4=94] [DF]2 | [_D=E][=DF] [Fd]2 [_Ec]2 | [DB]2 [DF]2 [DF]2 | A3 G FG |[M:2/4] [DF]4 | %5
[M:1/4] [DF]2 |[M:3/4] BB B2 [^FA]2 | [^FA]2 [EG]2 [=FG]2 | [=Ec]3 [EG] [EA][EB] |[M:2/4] c4 | %10
[M:1/4] FF |[M:3/4] [Fd][EA] [Dc]2 [DB]2 | [EA]4 z2 | cG B2 A2 |[M:2/4] [DF]4 |[M:1/4] F2 | %16
[M:3/4] dd c2 B2 | [Ge][Ge] [Gd]2 [Gc]2 | BF F2 c2 |[M:2/4] [DB]4 |] %20
V:2
 z2 z2 [B,,B,]2 | [B,,B,][B,,B,] [F,B,]2 [F,A,]2 | [B,,F,]2 [B,,B,]2 [B,,B,]2 | %3
 [F,CE]3 [F,B,E] [F,A,E][F,A,E] |[M:2/4] [B,,B,]4 |[M:1/4] [B,,B,]2 | %6
[M:3/4] [G,B,D][G,B,D] [G,B,D]2 [D,C]2 | [E,C]2 [E,B,]2 [D,=B,]2 | [C,G,]3 [C,C] [C,C][C,B,] | %9
[M:2/4] [F,A,E]4 |[M:1/4] E z |[M:3/4] [B,,B,][B,,F,] [B,,F,]2 [B,,B,]2 | [F,C]F, F,2 [F,A,E]2 | %13
 [F,A,E][F,CE] [E,CE]2 [F,CE]2 |[M:2/4] [B,,B,]B,, B,,2 |[M:1/4][K:treble] [B,D]2 | %16
[M:3/4] [B,DF][B,DF] [B,D_A]2 [B,DA]2 | [E,B,][E,B,] [E,=B,]2 [E,C]2 | %18
 [F,DF][F,B,D] [F,A,E]2 [F,A,E]2 |[M:2/4] [B,,F,B,]4 |] %20
V:3
 x6 | x6 | x6 | x6 |[M:2/4] x4 |[M:1/4] x2 |[M:3/4] x6 | x6 | x6 |[M:2/4] x4 |[M:1/4] [F,A,]2 | %11
[M:3/4] x6 | x6 | x6 |[M:2/4] x4 |[M:1/4][K:treble] x2 |[M:3/4] x6 | x6 | x6 |[M:2/4] x4 |] %20
V:4
 x6 | x6 | x6 | x6 |[M:2/4] x4 |[M:1/4] x2 |[M:3/4] x6 | x6 | x6 |[M:2/4] x4 |[M:1/4] x2 | %11
[M:3/4] x6 | z C C2 F2 | x6 |[M:2/4] z B, B,2 |[M:1/4] x2 |[M:3/4] x6 | x6 | x6 |[M:2/4] x4 |] %20

